release/img/logo_rnkb.svg

<svg width="84" height="38" viewBox="0 0 84 38" fill="none" xmlns="http://www.w3.org/2000/svg">
<g clip-path="url(#clip0_581_538)">
<path d="M55.9316 38.1203H0L5.06932 21.5078H61L55.9316 38.1203Z" fill="#00AEC7"/>
<path d="M23.861 15.2796V4.89144H28.4184V8.33209H30.5143V4.89144H35.071V15.2796H30.5143V11.8374H28.4184V15.2796H23.861ZM46.4125 9.50336L48.143 4.89144H43.6994L42.316 8.33285H41.5012V4.89144H36.944V15.2804H41.5012V11.8382H42.5905L43.9746 15.2804H48.5228L46.4125 9.50336ZM54.971 12.1154C53.8712 12.1154 53.613 11.2537 53.613 10.5822C53.613 9.91381 53.8712 9.07212 54.971 9.07212C56.0483 9.07212 56.3072 9.91381 56.3072 10.5822C56.3072 11.2537 56.0483 12.1154 54.971 12.1154ZM56.6093 6.04808C55.2291 6.04808 54.2815 6.58637 53.6352 7.27864C53.6566 6.39305 54.3022 5.46437 55.1859 5.09858C56.7164 4.44941 58.4839 4.90298 59.7344 3.80103V0.0107422C59.7344 0.0107422 58.6651 0.450449 56.6931 0.683011C55.508 0.823163 53.8272 1.20049 52.3418 2.13921C50.4871 3.30509 49.1731 5.22719 49.1731 9.11449C49.1731 14.19 52.1033 15.6146 55.1213 15.6146C58.0958 15.6146 60.7471 14.1037 60.7471 10.7771C60.7471 7.58128 58.8503 6.04808 56.6093 6.04808ZM16.0142 11.9683C15.3878 11.9683 14.869 11.5995 14.6746 11.2322V8.93813C14.8906 8.57003 15.3878 8.20272 16.0142 8.20272C17.1147 8.20272 17.5905 9.15454 17.5905 10.0856C17.5905 10.2011 17.5828 10.3189 17.5674 10.4329C17.4629 11.2391 16.9772 11.9683 16.0142 11.9683ZM22.277 10.0856C22.277 7.53045 21.1196 5.1155 18.5112 4.6327C18.452 4.62191 18.392 4.61189 18.3306 4.60343C18.1776 4.5811 18.0193 4.56338 17.8556 4.55492C17.7472 4.54875 17.6374 4.54566 17.5251 4.54566C17.4291 4.54566 17.3345 4.54799 17.24 4.55336C17.2362 4.55336 17.2331 4.55336 17.2285 4.55492C16.3946 4.60419 15.6629 4.86446 15.105 5.25566C14.72 5.51288 14.3941 5.82013 14.1351 6.14586L13.7516 4.89144H10.1387V19.4296H14.6961V14.6521C15.0158 14.9385 15.4185 15.1857 15.9035 15.3582C16.3546 15.5415 16.8734 15.6262 17.5251 15.6262C20.8306 15.6262 22.277 12.9417 22.277 10.0856Z" fill="white"/>
</g>
<defs>
<clipPath id="clip0_581_538">
<rect width="84" height="38" fill="white"/>
</clipPath>
</defs>
</svg>

<svg xmlns="http://www.w3.org/2000/svg" width="84" height="38" fill="none" viewBox="0 0 84 38">
  <g clip-path="url(#a)">
    <path fill="#00AEC7" d="M55.932 38.12H0l5.07-16.612H61L55.932 38.12Z"/>
    <path fill="#fff" d="M23.861 15.28V4.89h4.557v3.441h2.096v-3.44h4.557V15.28h-4.557v-3.443h-2.096v3.443h-4.557Zm22.552-5.777 1.73-4.612h-4.444l-1.383 3.442h-.815V4.89h-4.557v10.39h4.557v-3.443h1.09l1.384 3.442h4.548l-2.11-5.777Zm8.558 2.612c-1.1 0-1.358-.861-1.358-1.533 0-.668.258-1.51 1.358-1.51 1.077 0 1.336.842 1.336 1.51 0 .672-.259 1.533-1.336 1.533Zm1.638-6.067c-1.38 0-2.328.538-2.974 1.23.022-.885.667-1.814 1.55-2.18 1.531-.649 3.299-.195 4.55-1.297V.011s-1.07.44-3.042.672c-1.185.14-2.866.517-4.351 1.456-1.855 1.166-3.169 3.088-3.169 6.975 0 5.076 2.93 6.5 5.948 6.5 2.975 0 5.626-1.51 5.626-4.837 0-3.196-1.897-4.729-4.138-4.729Zm-40.595 5.92c-.626 0-1.145-.368-1.34-.736V8.938c.217-.368.714-.735 1.34-.735 1.1 0 1.576.952 1.576 1.883 0 .115-.007.233-.023.347-.104.806-.59 1.535-1.553 1.535Zm6.263-1.882c0-2.556-1.157-4.97-3.766-5.453a5.107 5.107 0 0 0-.986-.087c-.096 0-.19.002-.285.007-.004 0-.007 0-.011.002-.834.05-1.566.31-2.124.7a4.28 4.28 0 0 0-.97.89l-.383-1.254h-3.613V19.43h4.557v-4.778c.32.287.723.534 1.207.706.452.183.97.268 1.622.268 3.306 0 4.752-2.684 4.752-5.54Z"/>
  </g>
  <defs>
    <clipPath id="a">
      <path fill="#fff" d="M0 0h84v38H0z"/>
    </clipPath>
  </defs>
</svg>
